src/lib/packages/icons/src/assets/filled/radiation.svg

<svg width="24" height="24" viewBox="0 0 24 24" fill="none" xmlns="http://www.w3.org/2000/svg">
<path d="M16.06 20.01C14.84 20.64 13.4599 21 11.9999 21C10.5399 21 9.15989 20.64 7.93989 20.01C7.68989 19.88 7.60995 19.56 7.74995 19.31L10.1899 14.99C10.7199 15.32 11.3399 15.5 11.9999 15.5C12.6599 15.5 13.28 15.32 13.81 14.99L16.2499 19.31C16.3889 19.56 16.309 19.88 16.06 20.01ZM16.9489 4.08006C16.7089 3.92006 16.389 4.00999 16.249 4.25999L13.619 8.89988C14.679 9.45988 15.419 10.53 15.489 11.78C15.499 11.78 15.499 11.78 15.509 11.78H20.488C20.778 11.78 21.018 11.54 20.998 11.25C20.829 8.24998 19.2589 5.63006 16.9489 4.08006ZM7.75092 4.25999C7.61092 4.00999 7.29097 3.92006 7.05097 4.08006C4.74097 5.63006 3.1709 8.24998 3.0019 11.25C2.9819 11.54 3.22191 11.78 3.51191 11.78H8.49091C8.50091 11.78 8.50093 11.78 8.51093 11.78C8.58093 10.53 9.32093 9.45988 10.3809 8.89988L7.75092 4.25999ZM11.9999 10.75C11.3099 10.75 10.7499 11.31 10.7499 12C10.7499 12.69 11.3099 13.25 11.9999 13.25C12.6899 13.25 13.2499 12.69 13.2499 12C13.2499 11.31 12.6899 10.75 11.9999 10.75Z" fill="currentColor"/>
</svg>

<svg xmlns="http://www.w3.org/2000/svg" width="24" height="24" fill="none"><path fill="currentColor" d="M16.06 20.01a8.826 8.826 0 0 1-8.12 0c-.25-.13-.33-.45-.19-.7l2.44-4.32c.53.33 1.15.51 1.81.51.66 0 1.28-.18 1.81-.51l2.44 4.32c.139.25.059.57-.19.7Zm.889-15.93a.492.492 0 0 0-.7.18l-2.63 4.64c1.06.56 1.8 1.63 1.87 2.88h4.999c.29 0 .53-.24.51-.53-.169-3-1.74-5.62-4.05-7.17Zm-9.198.18a.492.492 0 0 0-.7-.18c-2.31 1.55-3.88 4.17-4.05 7.17-.02.29.22.53.51.53h5c.07-1.25.81-2.32 1.87-2.88L7.75 4.26ZM12 10.75a1.25 1.25 0 1 0 0 2.5 1.25 1.25 0 0 0 0-2.5Z"/></svg>
